src/topics/icons/auth0.svg

<svg height="287" preserveAspectRatio="xMidYMid" viewBox="0 0 256 287" width="256" xmlns="http://www.w3.org/2000/svg"><path d="m203.240327 231.531381-28.731267-88.434327 75.209419-54.6405603h-92.966535l-28.732972-88.4309169-.008526-.02387168h92.980176l28.739793 88.44626298.001705-.0017051.023871-.013641c16.689712 51.310461-.4996 109.669888-46.515664 143.098759zm-150.4495304 0-.0238717.017051 75.2281751 54.654201 75.245227-54.669547-75.221355-54.655906zm-46.49690858-143.0970539c-17.56955322 54.0881019 2.82538331 111.4005839 46.48156248 143.1072849l.0068205-.027282 28.7346769-88.429212-75.19236773-54.6303294h92.94436873l28.7346771-88.43091692.00682-.02387168h-92.9852914z" fill="#eb5424"/></svg>

<?xml version="1.0" encoding="UTF-8" standalone="no"?>
<svg width="256px" height="287px" viewBox="0 0 256 287" version="1.1" xmlns="http://www.w3.org/2000/svg" xmlns:xlink="http://www.w3.org/1999/xlink" preserveAspectRatio="xMidYMid">
    <g>
        <path d="M203.240327,231.531381 L174.50906,143.097054 L249.718479,88.4564937 L156.751944,88.4564937 L128.018972,0.0255767952 L128.010446,0.00170511968 L220.990622,0.00170511968 L249.730415,88.4479681 L249.73212,88.446263 L249.755991,88.432622 C266.445703,139.743083 249.256391,198.10251 203.240327,231.531381 L203.240327,231.531381 Z M52.7907966,231.531381 L52.7669249,231.548432 L127.9951,286.202633 L203.240327,231.533086 L128.018972,176.87718 L52.7907966,231.531381 L52.7907966,231.531381 Z M6.29388802,88.4343271 L6.29388802,88.4343271 C-11.2756652,142.522429 9.11927133,199.834911 52.7754505,231.541612 L52.782271,231.51433 L81.5169479,143.085118 L6.32458017,88.4547886 L99.2689489,88.4547886 L128.003626,0.0238716755 L128.010446,2.84217094e-14 L35.0251546,2.84217094e-14 L6.29388802,88.4343271 L6.29388802,88.4343271 Z" fill="#EB5424"></path>
    </g>
</svg>
